X:1
T:Title
%%score { 1 | 2 }
L:1/8
Q:1/4=100
M:4/4
K:Eb
V:1 treble nm="Grand Piano"
V:2 bass 
V:1
 [GB]>[Ac] [GB][FA] [EG][GB][Ge][Ac] | [GB]>G GG G4 | [FA]>[GB] [FA][EG] [DF][EG][DFA][DGB] | %3
w: Chas.~H.~Gabriel * * * * * * *|||
 [Ac][GB][_G=A][=GB] [EG]4 | [GB]>[Ac] [GB][FA] [EG][GB][Ge][Ac] | [GB]>G GG G4 | F>d d2 c>d e2 | %7
w: ||||
 =A4 [DB]4 | [GB]2 [Ge]2 e4 | c>e d>c B2 G2 | [DB]>[DF] [DF][EG] [FA][=EG][DFA][DGB] | %11
w: ||||
 [EAc]2 [EGB]2 [B,EG]4 | [EGB]2 [Ge]2 e4 | c>e d>c B2 G2 | [Ge]>[Ac] [GB][Ac] [GB]GEF | %15
w: ||||
 G2 [DF]2 E4 |] %16
w: |
V:2
 [E,E]>[E,E] [E,E][E,B,] [E,B,][E,E][E,B,][E,C] | [E,E]>[E,B,E] [E,B,E][E,B,E] [E,B,E]4 | %2
 [B,,B,]>[B,,B,] [B,,B,][B,,B,] [B,,B,][B,,B,]B,,B,, | [E,E][E,E][E,E][E,E] [E,B,]4 | %4
 [E,E]>[E,E] [E,E][E,B,] [E,B,][E,E][E,B,][E,C] | [E,E]>[E,B,E] [E,B,E][E,B,E] [E,B,E]4 | %6
 [F,B,D]>[F,B,F] [F,B,F]2 [F,=A,F]>[F,B,F] [F,CF]2 | [F,CE]4 [B,,B,]4 | [E,E]2 [E,B,]2 [G,B,E]4 | %9
 [A,E]>[A,CE] [A,B,E]>[A,E] [E,G,E]2 [E,B,E]2 | %10
 [B,,B,]>[B,,B,] [B,,B,][B,,B,] [B,,B,][B,,B,]B,,B,, | E,2 E,2 E,4 | E,2 [E,B,]2 [G,B,E]4 | %13
 [A,E]>[A,CE] [A,B,E]>[A,E] [E,G,E]2 [E,B,E]2 | [E,B,]>[E,C] [E,E][E,E] [E,E][E,B,E][G,B,][A,CE] | %15
 [B,E]2 [B,,A,]2 [E,G,]4 |] %16

